imprint/img/imprint-light.svg

<?xml version="1.0" encoding="UTF-8" standalone="no"?>
<!-- Created with Inkscape (http://www.inkscape.org/) -->

<svg
   xmlns:dc="http://purl.org/dc/elements/1.1/"
   xmlns:cc="http://creativecommons.org/ns#"
   xmlns:rdf="http://www.w3.org/1999/02/22-rdf-syntax-ns#"
   xmlns:svg="http://www.w3.org/2000/svg"
   xmlns="http://www.w3.org/2000/svg"
   xmlns:sodipodi="http://sodipodi.sourceforge.net/DTD/sodipodi-0.dtd"
   xmlns:inkscape="http://www.inkscape.org/namespaces/inkscape"
   version="1.1"
   width="25.6pt"
   height="25.6pt"
   id="svg2"
   inkscape:version="0.48.4 r9939"
   sodipodi:docname="imprint-light.svg">
  <sodipodi:namedview
     pagecolor="#ffffff"
     bordercolor="#666666"
     borderopacity="1"
     objecttolerance="10"
     gridtolerance="10"
     guidetolerance="10"
     inkscape:pageopacity="0"
     inkscape:pageshadow="2"
     inkscape:window-width="1920"
     inkscape:window-height="1114"
     id="namedview14"
     showgrid="false"
     inkscape:snap-bbox="true"
     inkscape:zoom="26.425958"
     inkscape:cx="15.007081"
     inkscape:cy="15.790081"
     inkscape:window-x="-4"
     inkscape:window-y="-6"
     inkscape:window-maximized="1"
     inkscape:current-layer="svg2" />
  <title
     id="title2997">imprint</title>
  <metadata
     id="metadata20">
    <rdf:RDF>
      <cc:Work
         rdf:about="">
        <dc:format>image/svg+xml</dc:format>
        <dc:type
           rdf:resource="http://purl.org/dc/dcmitype/StillImage" />
        <dc:title>imprint</dc:title>
        <dc:creator>
          <cc:Agent>
            <dc:title>Christian Reiner</dc:title>
          </cc:Agent>
        </dc:creator>
        <dc:rights>
          <cc:Agent>
            <dc:title>Copyright 2012, Christian Reiner, Hamburg, Germany</dc:title>
          </cc:Agent>
        </dc:rights>
        <dc:publisher>
          <cc:Agent>
            <dc:title>Christian Reiner</dc:title>
          </cc:Agent>
        </dc:publisher>
        <dc:identifier>imprint</dc:identifier>
        <dc:subject>
          <rdf:Bag>
            <rdf:li>imprint legal app icon</rdf:li>
          </rdf:Bag>
        </dc:subject>
        <cc:license
           rdf:resource="http://creativecommons.org/licenses/by-nc-nd/3.0/" />
      </cc:Work>
      <cc:License
         rdf:about="http://creativecommons.org/licenses/by-nc-nd/3.0/">
        <cc:permits
           rdf:resource="http://creativecommons.org/ns#Reproduction" />
        <cc:permits
           rdf:resource="http://creativecommons.org/ns#Distribution" />
        <cc:requires
           rdf:resource="http://creativecommons.org/ns#Notice" />
        <cc:requires
           rdf:resource="http://creativecommons.org/ns#Attribution" />
        <cc:prohibits
           rdf:resource="http://creativecommons.org/ns#CommercialUse" />
      </cc:License>
    </rdf:RDF>
  </metadata>
  <defs
     id="defs4">
    <font
       horiz-adv-x="1024"
       id="font2986"
       inkscape:label="font 1">
      <font-face
         units-per-em="1024"
         id="font-face2988"
         font-family="SVGFont 1" />
      <missing-glyph
         d="M0,0h1000v1024h-1000z"
         id="missing-glyph2990" />
    </font>
  </defs>
  <g
     transform="scale(1.1233354,0.89020607)"
     style="font-size:21.90891075px;fill:#000000"
     id="text2986-8-41">
    <path
       d="m 6.4863146,28.830117 3.3428901,-0.480194 c 0.3447483,1.600645 0.8926613,2.721097 1.6437413,3.361359 0.751065,0.652567 1.773015,0.978852 3.065855,0.978857 1.255881,-5e-6 2.234737,-0.320134 2.936572,-0.960388 0.714121,-0.640262 1.071188,-1.391334 1.071202,-2.253219 -1.4e-5,-0.627947 -0.221642,-1.206642 -0.664884,-1.736086 -0.763399,-0.92345 -2.856551,-2.43175 -6.279462,-4.524907 C 9.7799481,22.095092 8.5055879,21.220893 7.779145,20.592941 7.0650069,19.952689 6.4801557,19.201617 6.0245895,18.339722 5.5690189,17.477845 5.3412348,16.579021 5.3412363,15.643247 5.3412348,14.461244 5.7106145,13.390042 6.4493766,12.42964 7.1881335,11.469268 8.2039278,10.798228 9.4967626,10.416518 8.6225582,9.5792747 8.0069253,8.8097336 7.649862,8.1078926 7.2927911,7.3937779 7.1142576,6.6365494 7.1142608,5.8362049 7.1142576,4.2602064 7.7298905,2.8935013 8.9611614,1.7360856 10.192422,0.57872155 11.823849,2.6613416e-5 13.855448,-9.2387199e-7 16.157905,2.6613416e-5 17.955553,0.5479399 19.248398,1.6437406 20.541211,2.7395931 21.316909,4.327926 21.575492,6.4087441 L 18.121788,6.7596552 C 17.863208,5.2575317 17.40764,4.2109557 16.755082,3.6199242 16.114811,3.0289405 15.246768,2.7334367 14.150952,2.7334119 c -1.132775,2.48e-5 -2.050068,0.3078413 -2.751882,0.9234503 -0.689516,0.6033442 -1.034271,1.274384 -1.034264,2.0131217 -7e-6,0.6402801 0.221621,1.2312877 0.664884,1.7730245 0.689502,0.8372809 2.573338,2.1916733 5.651516,4.0631816 1.933074,1.182031 3.238216,2.050073 3.915429,2.60413 0.874182,0.738772 1.51444,1.502157 1.920777,2.290156 0.418611,0.788022 0.627927,1.643751 0.627946,2.567192 -1.9e-5,1.391339 -0.449431,2.579511 -1.348238,3.564518 -0.517149,0.566387 -1.465224,1.138926 -2.844226,1.717618 0.984997,0.751075 1.7176,1.557554 2.197811,2.419439 0.492489,0.861887 0.738742,1.785337 0.73876,2.770351 -1.8e-5,1.083512 -0.307834,2.105463 -0.92345,3.065855 -0.61565,0.972695 -1.502161,1.711455 -2.659537,2.216281 -1.157404,0.517124 -2.407139,0.77569 -3.749208,0.775698 -2.351728,-8e-6 -4.217096,-0.591015 -5.5961086,-1.773024 C 7.5821386,32.554695 6.7571905,30.923268 6.4863146,28.830117 M 17.290683,23.030849 c 0.911123,-0.467876 1.588319,-1.009633 2.031591,-1.625272 0.455553,-0.62794 0.683337,-1.237416 0.683353,-1.828432 -1.6e-5,-0.701813 -0.320145,-1.440573 -0.960388,-2.21628 -0.652587,-0.775688 -2.037761,-1.816107 -4.155527,-3.121262 -1.686845,-1.03425 -2.942736,-1.883824 -3.767677,-2.548723 -0.997333,0.566398 -1.7114667,1.13278 -2.1424046,1.699148 -0.4186355,0.566397 -0.6279507,1.194342 -0.6279462,1.883839 -4.5e-6,0.77571 0.2831866,1.514469 0.8495743,2.216281 0.5663769,0.701831 1.8407375,1.637593 3.8230845,2.807288 1.649887,0.972708 3.071999,1.883844 4.26634,2.733413"
       style="font-size:37.82452393px;font-family:Anglepoise Lampshade"
       id="path2996" />
  </g>
  <g
     transform="scale(1.1233354,0.89020607)"
     style="font-size:21.90891075px;fill:#ffffff"
     id="text2986-8-41-9">
    <path
       d="m 6.4863146,29.279422 3.3428901,-0.480194 c 0.3447483,1.600644 0.8926613,2.721096 1.6437413,3.361359 0.751065,0.652566 1.773015,0.978852 3.065855,0.978857 1.255881,-5e-6 2.234737,-0.320134 2.936572,-0.960388 0.714121,-0.640263 1.071188,-1.391335 1.071202,-2.253219 -1.4e-5,-0.627948 -0.221642,-1.206642 -0.664884,-1.736087 C 17.118292,27.266301 15.02514,25.758 11.602229,23.664844 9.7799481,22.544396 8.5055879,21.670198 7.779145,21.042245 7.0650069,20.401994 6.4801557,19.650922 6.0245895,18.789026 5.5690189,17.92715 5.3412348,17.028326 5.3412363,16.092552 5.3412348,14.910548 5.7106145,13.839347 6.4493766,12.878945 7.1881335,11.918572 8.2039278,11.247532 9.4967626,10.865823 8.6225582,10.028579 8.0069253,9.2590382 7.649862,8.5571972 7.2927911,7.8430825 7.1142576,7.085854 7.1142608,6.2855095 7.1142576,4.7095109 7.7298905,3.3428059 8.9611614,2.1853902 10.192422,1.0280261 11.823849,0.44933119 13.855448,0.44930366 c 2.302457,2.753e-5 4.100105,0.54794083 5.39295,1.64374154 1.292813,1.0958525 2.068511,2.6841854 2.327094,4.7650035 L 18.121788,7.2089598 C 17.863208,5.7068363 17.40764,4.6602603 16.755082,4.0692288 16.114811,3.4782451 15.246768,3.1827413 14.150952,3.1827165 c -1.132775,2.48e-5 -2.050068,0.3078413 -2.751882,0.9234503 -0.689516,0.6033441 -1.034271,1.274384 -1.034264,2.0131216 -7e-6,0.6402801 0.221621,1.2312877 0.664884,1.7730246 0.689502,0.8372809 2.573338,2.191673 5.651516,4.063181 1.933074,1.182032 3.238216,2.050074 3.915429,2.60413 0.874182,0.738773 1.51444,1.502158 1.920777,2.290157 0.418611,0.788021 0.627927,1.643751 0.627946,2.567192 -1.9e-5,1.391339 -0.449431,2.57951 -1.348238,3.564518 -0.517149,0.566387 -1.465224,1.138926 -2.844226,1.717617 0.984997,0.751076 1.7176,1.557555 2.197811,2.41944 0.492489,0.861887 0.738742,1.785336 0.73876,2.770351 -1.8e-5,1.083512 -0.307834,2.105463 -0.92345,3.065855 -0.61565,0.972695 -1.502161,1.711454 -2.659537,2.216281 -1.157404,0.517124 -2.407139,0.77569 -3.749208,0.775698 -2.351728,-8e-6 -4.217096,-0.591016 -5.5961086,-1.773025 C 7.5821386,33.004 6.7571905,31.372572 6.4863146,29.279422 M 17.290683,23.480154 c 0.911123,-0.467877 1.588319,-1.009634 2.031591,-1.625273 0.455553,-0.627939 0.683337,-1.237416 0.683353,-1.828431 -1.6e-5,-0.701814 -0.320145,-1.440573 -0.960388,-2.216281 -0.652587,-0.775687 -2.037761,-1.816107 -4.155527,-3.121262 -1.686845,-1.03425 -2.942736,-1.883823 -3.767677,-2.548723 -0.997333,0.566398 -1.7114667,1.132781 -2.1424046,1.699149 -0.4186355,0.566396 -0.6279507,1.194342 -0.6279462,1.883838 -4.5e-6,0.77571 0.2831866,1.51447 0.8495743,2.216281 0.5663769,0.701832 1.8407375,1.637594 3.8230845,2.807289 1.649887,0.972707 3.071999,1.883844 4.26634,2.733413"
       style="font-size:37.82452393px;font-family:Anglepoise Lampshade"
       id="path2993" />
  </g>
</svg>

<?xml version="1.0" encoding="UTF-8" standalone="no"?>
<svg xmlns:rdf="http://www.w3.org/1999/02/22-rdf-syntax-ns#" xmlns="http://www.w3.org/2000/svg" height="25.6pt" width="25.6pt" version="1.1" xmlns:cc="http://creativecommons.org/ns#" xmlns:dc="http://purl.org/dc/elements/1.1/">
 <title>imprint</title>
 <defs>
  <font id="font2986" horiz-adv-x="1024">
   <font-face font-family="SVGFont 1" units-per-em="1024"/>
   <missing-glyph d="M0,0h1000v1024h-1000z"/>
  </font>
 </defs>
 <g transform="scale(1.1233 .89021)">
  <path d="m6.4863 28.83 3.3429-0.48019c0.34475 1.6006 0.89266 2.7211 1.6437 3.3614 0.75106 0.65257 1.773 0.97885 3.0659 0.97886 1.2559-0.000005 2.2347-0.32013 2.9366-0.96039 0.71412-0.64026 1.0712-1.3913 1.0712-2.2532-0.000014-0.62795-0.22164-1.2066-0.66488-1.7361-0.7634-0.92345-2.8566-2.4318-6.2795-4.5249-1.8221-1.121-3.0964-1.995-3.8229-2.623-0.7141-0.64-1.2989-1.391-1.7545-2.253s-0.6834-1.761-0.6834-2.697c0-1.182 0.3694-2.253 1.1082-3.213 0.7387-0.961 1.7545-1.632 3.0474-2.013-0.8742-0.8377-1.4899-1.6073-1.8469-2.3091-0.3571-0.7141-0.5356-1.4714-0.5356-2.2717 0-1.576 0.6156-2.9427 1.8469-4.1001 1.2308-1.1574 2.8628-1.7361 4.8938-1.7361 2.303 0.000026613 4.101 0.54794 5.393 1.6437 1.293 1.0959 2.069 2.6842 2.327 4.765l-3.453 0.351c-0.259-1.5022-0.714-2.5487-1.367-3.1398-0.64-0.591-1.508-0.8865-2.604-0.8865-1.1328 0.0000248-2.0501 0.30784-2.7519 0.92345-0.68952 0.60334-1.0343 1.2744-1.0343 2.0131-0.000007 0.64028 0.22162 1.2313 0.66488 1.773 0.6895 0.83728 2.5733 2.1917 5.6515 4.0632 1.9331 1.182 3.2382 2.0501 3.9154 2.6041 0.87418 0.73877 1.5144 1.5022 1.9208 2.2902 0.41861 0.78802 0.62793 1.6438 0.62795 2.5672-0.000019 1.3913-0.44943 2.5795-1.3482 3.5645-0.51715 0.56639-1.4652 1.1389-2.8442 1.7176 0.985 0.75108 1.7176 1.5576 2.1978 2.4194 0.49249 0.86189 0.73874 1.7853 0.73876 2.7704-0.000018 1.0835-0.30783 2.1055-0.92345 3.0659-0.61565 0.9727-1.5022 1.7115-2.6595 2.2163-1.1574 0.51712-2.4071 0.77569-3.7492 0.7757-2.3517-0.000008-4.2171-0.59102-5.5961-1.773-1.3793-1.168-2.2042-2.8-2.4751-4.893m10.805-5.799c0.91112-0.46788 1.5883-1.0096 2.0316-1.6253 0.45555-0.62794 0.68334-1.2374 0.68335-1.8284-0.000016-0.70181-0.32014-1.4406-0.96039-2.2163-0.65259-0.77569-2.0378-1.8161-4.1555-3.1213-1.6868-1.0342-2.9427-1.8838-3.7677-2.5487-0.99733 0.5664-1.7115 1.1328-2.1424 1.6991-0.41864 0.5664-0.62795 1.1943-0.62795 1.8838-0.0000045 0.77571 0.28319 1.5145 0.84957 2.2163 0.56638 0.70183 1.8407 1.6376 3.8231 2.8073 1.6499 0.97271 3.072 1.8838 4.2663 2.7334"/>
 </g>
 <g fill="#fff" transform="scale(1.1233 .89021)">
  <path d="m6.4863 29.279 3.3429-0.48019c0.34475 1.6006 0.89266 2.7211 1.6437 3.3614 0.75106 0.65257 1.773 0.97885 3.0659 0.97886 1.2559-0.000005 2.2347-0.32013 2.9366-0.96039 0.71412-0.64026 1.0712-1.3913 1.0712-2.2532-0.000014-0.62795-0.22164-1.2066-0.66488-1.7361-0.764-0.924-2.857-2.432-6.28-4.525-1.8221-1.121-3.0964-1.995-3.8229-2.623-0.7141-0.64-1.2989-1.391-1.7545-2.253s-0.6834-1.761-0.6834-2.696c0-1.182 0.3694-2.254 1.1082-3.214 0.7387-0.96 1.7545-1.631 3.0474-2.013-0.8742-0.837-1.4899-1.607-1.8469-2.3088-0.3571-0.7141-0.5356-1.4713-0.5356-2.2717 0-1.576 0.6156-2.9427 1.8469-4.1001 1.2308-1.1574 2.8628-1.7361 4.8938-1.7361 2.3025 0.00002753 4.1001 0.54794 5.393 1.6437 1.2928 1.0959 2.0685 2.6842 2.3271 4.765l-3.453 0.351c-0.259-1.5022-0.714-2.5487-1.367-3.1398-0.64-0.591-1.508-0.8865-2.604-0.8865-1.1328 0.0000248-2.0501 0.30784-2.7519 0.92345-0.68952 0.60334-1.0343 1.2744-1.0343 2.0131-0.000007 0.64028 0.22162 1.2313 0.66488 1.773 0.6895 0.83728 2.5733 2.1917 5.6515 4.0632 1.9331 1.182 3.2382 2.0501 3.9154 2.6041 0.87418 0.73877 1.5144 1.5022 1.9208 2.2902 0.41861 0.78802 0.62793 1.6438 0.62795 2.5672-0.000019 1.3913-0.44943 2.5795-1.3482 3.5645-0.51715 0.56639-1.4652 1.1389-2.8442 1.7176 0.985 0.75108 1.7176 1.5576 2.1978 2.4194 0.49249 0.86189 0.73874 1.7853 0.73876 2.7704-0.000018 1.0835-0.30783 2.1055-0.92345 3.0659-0.61565 0.9727-1.5022 1.7115-2.6595 2.2163-1.1574 0.51712-2.4071 0.77569-3.7492 0.7757-2.3517-0.000008-4.2171-0.59102-5.5961-1.773-1.3793-1.169-2.2042-2.8-2.4751-4.894m10.805-5.799c0.91112-0.46788 1.5883-1.0096 2.0316-1.6253 0.45555-0.62794 0.68334-1.2374 0.68335-1.8284-0.000016-0.70181-0.32014-1.4406-0.96039-2.2163-0.65259-0.77569-2.0378-1.8161-4.1555-3.1213-1.6868-1.0342-2.9427-1.8838-3.7677-2.5487-0.99733 0.5664-1.7115 1.1328-2.1424 1.6991-0.41864 0.5664-0.62795 1.1943-0.62795 1.8838-0.0000045 0.77571 0.28319 1.5145 0.84957 2.2163 0.56638 0.70183 1.8407 1.6376 3.8231 2.8073 1.6499 0.97271 3.072 1.8838 4.2663 2.7334"/>
 </g>
</svg>
